X:374
T:Reuben
C:arranged by Lee Marcus
N:Transcribed by Lee Marcus
R:bluegrass
L:1/8
Q:1/4=246
M:4/4
K:D
z2 A,=C D=F GD | GA A=c ^G=G =F2 | GA A=c A2 G/A/A | A=c A^G =GD =F^F | D=C A,C D=F GD | 
{G}A2 A2 A2 d=c | AG ^G=c A=G =F^F | D=C A,D =F/^F/D G=F/^F/ | D2 A,=C D=F GD | 
GA A=c ^G=G =FD | {G}A2 =cd D2 c2 | A^G =cA G=G =F^F | D=C DG =F^F G^G | A=c d=f ed c^c | 
AG ^G=c A=G =F^F | D2 [D2A,2] G/A/G =F^F | D8 | 


